X:1
T:Out from the Hedges of This Life
T:Out from the Hedges of This Life
T:James M. Vines
T:Raymond W. Doster, 1904
T:Public Domain Courtesy of the Cyber Hymnal™
T:Public Domain Courtesy of the Cyber Hymnal™
C:James M. Vines
Z:Public Domain
Z:Courtesy of the Cyber Hymnal™
%%score ( 1 2 ) ( 3 4 )
L:1/8
Q:1/4=90
M:4/4
K:F
V:1 treble 
V:2 treble 
V:3 bass 
V:4 bass 
V:1
 (3C[CF][DG] | [FA]>[FA] [FA]>[FA] [FA]>[CE] D>[FA] | %2
w: 1.~Out from the|hedg- es of this life, And to the|
w: 2.~Go ye a-|mong the ways of sin, And throw a|
w: 3.~Then your re-|ward will be with Him Who- se light|
 [FA]>[FA] [Fd]>[Fc] [FA]2 (3F[FG][FA][EG]>[EG][EG]>[EG][EG]>[CE][CF]>[EG] | %3
w: Lord your ser- vice give; Out from the way of wrong and go the way of|
w: light to some poor soul, O- ver the dark- ness of this life ’twill shine the|
w: shall shine for- ev- er more, O- ver the toils of life you’ll say “’tis well”|
 [FA]2 [Fc]4 (3C[CF][DG] | [FA]>[FA] [FA]>[FA] [FA]>[CE] D>[FA] | %5
w: hon- or; Out from the|way that is a strife, And go the|
w: bright- est; In- to some|heart a light with- in Would be a|
w: for- ev- er; In- to|a world that ne’er shall end, And where|
 [FA]>[FA] [Fd]>[Fc] [FA]2 (3F[FG][FA][EG]>[EG][EG]>[EG] [FA]2 [EG]2 | F6 ||"^Refrain" (3CFG | %8
w: way that you should live, Th- en the an- gels of the heav’ns will|sing.|Sing of His|
w: lov- ing, kind pa- trol, Le- ad- ing him in- to the home of|homes.||
w: you’ll walk the gold- en shore, Sing- ing prais- es with the an- gels|fair.||
 (z2 [FA]>)G F>A x2 | (z3/2 [FA]2) (3CFA x5/2 | z2 [EG]>E F>G x2 | (z3/2 (3C)FG x7 | %12
w: * name with praise|* to Him, Sing|* of His love|* and *|
w: ||||
w: ||||
 (z2 [FA]>)G F>d x2 | (z3/2 [FA]2) (3(FG)[FA] x7/2 | [EG]>[EG] [EG]>[EG] [FA]2 [EG]2 | F6 |] %16
w: * power to save,|* Sing * of|the love and glad- ness there,|O-|
w: ||||
w: ||||
V:2
 C x | x6 D3/2 x/ | x6 F x9 | x6 C x | x6 D3/2 x/ | x6 F x9 | F6 || x2 | (A4- (3FFF G/) x3/2 | %9
 c4 F<F F/ x3/2 | (G4- (3EEE E/) x3/2 | (A6 F<FF/ F2) | (A4- (3FFF G/) x3/2 | (c4 F<F F/ x/ F2) | %14
 x8 | F6 |] %16
V:3
 (3[F,A,][F,A,][F,A,] | [F,C]>[F,C] [F,C]>[F,C] [F,C]>[F,B,] [F,A,]>[F,C] | %2
w: ~ ~ ~|~ ~ ~ ~ ~ ~ ~ ~|
 [F,A,]>[F,A,] [F,B,]>[F,A,] [F,C]2 (3[F,A,][F,A,][F,C][C,C]>[C,C][C,C]>[C,C][C,C]>[C,C][A,,C]>[C,C] | %3
w: ~ ~ ~ ~ ~ ~ ~ ~ ~ ~ ~ ~ ~ ~ ~ ~|
 [F,C]2 [F,A,]4 (3[F,A,][F,A,][F,A,] | [F,C]>[F,C] [F,C]>[F,C] [F,C]>[F,B,] [F,A,]>[F,C] | %5
w: ~ ~ ~ ~ ~|~ ~ ~ ~ ~ ~ ~ ~|
 [F,A,]>[F,A,] [F,B,]>[F,A,] [F,C]2 (3[F,A,][F,A,][F,C][C,B,]>[C,B,][C,B,]>[C,B,] [C,C]2 [C,B,]2 | %6
w: ~ ~ ~ ~ ~ ~ ~ ~ ~ ~ ~ ~ ~ ~|
 [F,A,]6 || z2 | z2 (3[F,C][F,C][F,C] [F,C]3/2 z/ z2 | z3/2 [F,A,]/ [F,A,]>[F,A,] [F,C]2 z2 | %10
w: ~||Sing of His name,|with praise to Him,|
 z2 (3[C,C][C,C][C,C] [C,C]3/2 z/ z2 | z3/2 [F,C]/ [F,C]>[F,C] [F,C]2 z2 x5/2 | %12
w: Sing of His love|and power to save;|
 z2 (3[F,C][F,C][F,C] [F,C]3/2 z/ z2 | z3/2 [F,A,]/ [F,A,]>[F,A,] [F,C]2 (3(A,B,)[F,C] x | %14
w: Sing of the love|and glad- ness there, * * *|
 [C,B,]>[C,B,] [C,B,]>[C,B,] [C,C]2 [C,B,]2 | [F,A,]6 |] %16
w: ||
V:4
 x2 | x8 | x16 | x8 | x8 | x16 | x6 || x2 | x8 | x8 | x8 | x21/2 | x8 | x6 F,2 x | x8 | x6 |] %16

